findly-builder/apps/searchassist/src/assets/images/source-icos/success-icon.svg

<svg width="60" height="60" viewBox="0 0 60 60" fill="none" xmlns="http://www.w3.org/2000/svg">
<circle cx="30" cy="30" r="30" fill="#28A745"/>
<rect x="16" y="16" width="28" height="28" fill="#D8D8D8" fill-opacity="0.01"/>
<path fill-rule="evenodd" clip-rule="evenodd" d="M40.1138 20.9423C40.4403 20.5908 40.9872 20.5731 41.3353 20.9027C41.663 21.213 41.6978 21.7204 41.4286 22.0721L41.3745 22.1361L26.7405 37.891C26.4278 38.2276 25.9144 38.2572 25.5667 37.9726L25.5035 37.9156L18.5326 30.9796C18.1927 30.6414 18.1887 30.0889 18.5237 29.7457C18.839 29.4226 19.3422 29.4 19.6837 29.6805L19.7458 29.7366L26.0857 36.0447L40.1138 20.9423Z" fill="white"/>
</svg>

<svg width="60" height="60" fill="none" xmlns="http://www.w3.org/2000/svg"><circle cx="30" cy="30" r="30" fill="#28A745"/><path fill="#D8D8D8" fill-opacity=".01" d="M16 16h28v28H16z"/><path fill-rule="evenodd" clip-rule="evenodd" d="M40.114 20.942a.858.858 0 0 1 1.221-.04.88.88 0 0 1 .094 1.17l-.055.064L26.74 37.891a.858.858 0 0 1-1.173.082l-.064-.057-6.97-6.936a.879.879 0 0 1-.01-1.234.858.858 0 0 1 1.16-.066l.063.057 6.34 6.308 14.028-15.103Z" fill="#fff"/></svg>
